!!!OTL: Der Maedchenmoerder (Halewijn - Ulinger) Et frad e Kenenk genzt dem Renj,
!!!ARE: Europa, Suedosteuropa, Rumaenien, Siebenbuergen, Muehlbach
!!!YOR: 2, S. 82
!!    1850 aufgezeichnet (ca.)
!!!SCT: Q0041E
!!!YEM: Copyright 1995, estate of Helmut Schaffrath.
**kern
*ICvox
*Ivox
*M4/4
*k[f#]
*G:
{8b
8b
8b
=1
4.e
8B
4e
4f#
=2
2e
8r}
{8b
8b
8b
=3
4a
4a
4b
4a
=4
2g
8r}
{8dd
8dd
8dd
=5
4.g
8g
4cc
4b
=6
2a
8r}
{8e
8d
8c
=7
8B
8d
4g
4.b
8a
=8
2g
8r}
==
!!!AGN: Ballade, Verfuehrung, Mord, Mordversuch bzw. Rache
!!!ONB: ESAC (Essen Associative Code) Database: BALLADE
!!!AMT: simple quadruple
!!!AIN: vox
!!!EED: Helmut Schaffrath
!!!EEV: 1.0
*-
